X:619
T:Coleman's Cross
R:Jig
O:Ireland
S:Music from Ireland Vol. 3
B:Music from Ireland Vol. 3
Z:Transcription, chords:Mike Long
M:6/8
L:1/8
K:D
d|\
"Em"B2e efe|B2e efe|"D"A2d dcd|A2d dcd|\
"Em"B2e efe|Bee ega|"G"bag "D"agf|"Em"gee e2:|
|:f|\
"G"gdB G3|"D"FDF AGF|"G"GBd ~g3|"D"fdd def|\
"G"gdB G3|"D"FDF AGF|"G"GBd gag|"D"fdd d2:|
